img/file.svg

<svg width="80" height="80" viewBox="0 0 80 80" fill="none" xmlns="http://www.w3.org/2000/svg">
<path d="M71.8128 20.3477L72.353 20.3628L71.8128 20.3477ZM70.8344 61.1459L70.447 61.5226L70.447 61.5226L70.8344 61.1459ZM70.6816 60.7541L71.2217 60.7692L70.6816 60.7541ZM71.7788 60.1789L71.2387 60.1637C71.2341 60.3266 71.3033 60.4828 71.427 60.5889C71.5506 60.695 71.7155 60.7397 71.8758 60.7104L71.7788 60.1789ZM72.8763 20.9771L73.0279 20.4584C72.8672 20.4114 72.6937 20.4416 72.5583 20.5402C72.4229 20.6388 72.3409 20.7945 72.3362 20.9619L72.8763 20.9771ZM52.6729 15.8536L52.2236 15.5534L52.2236 15.5534L52.6729 15.8536ZM48.5747 21.9871V22.5274C48.7551 22.5274 48.9237 22.4373 49.0239 22.2873L48.5747 21.9871ZM68.5921 60.2289V60.7692C68.8111 60.7692 69.0085 60.6369 69.0918 60.4343C69.1751 60.2318 69.1279 59.9989 68.9722 59.8448L68.5921 60.2289ZM53.411 16.6941V16.1538C53.2305 16.1538 53.062 16.2439 52.9617 16.394L53.411 16.6941ZM49.3127 22.8276L48.8635 22.5274L48.8635 22.5274L49.3127 22.8276ZM72.353 19.2821C71.7679 19.2821 71.2891 19.7477 71.2727 20.3326L72.353 20.3628V19.2821ZM75.6961 22.4895C75.6961 20.6549 74.1327 19.2821 72.353 19.2821V20.3628C73.6038 20.3628 74.6154 21.3174 74.6154 22.4895H75.6961ZM75.6961 57.5792V22.4895H74.6154V57.5792H75.6961ZM71.2217 61.8499C73.6276 61.8499 75.6961 60.0013 75.6961 57.5792H74.6154C74.6154 59.3399 73.0975 60.7692 71.2217 60.7692V61.8499ZM70.447 61.5226C70.6504 61.7318 70.9299 61.8499 71.2217 61.8499V60.7692H71.2217L70.447 61.5226ZM70.1415 60.739C70.1333 61.0307 70.2435 61.3133 70.447 61.5226L71.2217 60.7692V60.7692L70.1415 60.739ZM71.2727 20.3326L70.1415 60.739L71.2217 60.7692L72.353 20.3628L71.2727 20.3326ZM72.3189 60.194L73.4164 20.9922L72.3362 20.9619L71.2387 60.1637L72.3189 60.194ZM73.5347 57.5792C73.5347 58.5542 72.7812 59.4466 71.6818 59.6473L71.8758 60.7104C73.4357 60.4257 74.6154 59.1284 74.6154 57.5792H73.5347ZM73.5347 22.4895V57.5792H74.6154V22.4895H73.5347ZM72.7247 21.4957C73.2279 21.6428 73.5347 22.0667 73.5347 22.4895H74.6154C74.6154 21.5397 73.9453 20.7266 73.0279 20.4584L72.7247 21.4957ZM53.1222 15.0731C52.7613 15.0731 52.4242 15.2533 52.2236 15.5534L53.1222 16.1538L53.1222 16.1538V15.0731ZM65.8983 15.0731H53.1222V16.1538H65.8983V15.0731ZM69.1084 18.2784C69.1084 16.5064 67.6682 15.0731 65.8983 15.0731V16.1538C67.0738 16.1538 68.0277 17.1057 68.0277 18.2784H69.1084ZM69.1084 57.5824V18.2784H68.0277V57.5824H69.1084ZM71.2217 59.6885C70.0522 59.6885 69.1084 58.7435 69.1084 57.5824H68.0277C68.0277 59.3425 69.4575 60.7692 71.2217 60.7692V59.6885ZM72.3024 60.7692C72.3024 60.1724 71.8186 59.6885 71.2217 59.6885V60.7692H72.3024ZM71.2217 61.8499C71.8186 61.8499 72.3024 61.366 72.3024 60.7692H71.2217V61.8499ZM22.2465 61.8499H71.2217V60.7692H22.2465V61.8499ZM15.8424 55.4578C15.8424 58.9898 18.7112 61.8499 22.2465 61.8499V60.7692C19.3058 60.7692 16.9231 58.3907 16.9231 55.4578H15.8424ZM15.8424 24.652V55.4578H16.9231V24.652H15.8424ZM19.0525 21.4468C17.2826 21.4468 15.8424 22.88 15.8424 24.652H16.9231C16.9231 23.4793 17.877 22.5274 19.0525 22.5274V21.4468ZM48.5747 21.4468H19.0525V22.5274H48.5747V21.4468ZM52.2236 15.5534L48.1254 21.6869L49.0239 22.2873L53.1222 16.1538L52.2236 15.5534ZM66.947 57.5824C66.947 58.7678 67.4316 59.8405 68.212 60.6129L68.9722 59.8448C68.3883 59.2669 68.0277 58.4674 68.0277 57.5824H66.947ZM66.947 18.2784V57.5824H68.0277V18.2784H66.947ZM65.8983 17.2345C66.4791 17.2345 66.947 17.7046 66.947 18.2784H68.0277C68.0277 17.1057 67.0739 16.1538 65.8983 16.1538V17.2345ZM53.411 17.2345H65.8983V16.1538H53.411V17.2345ZM49.762 23.1278L53.8603 16.9943L52.9617 16.394L48.8635 22.5274L49.762 23.1278ZM48.8635 23.6081C49.2244 23.6081 49.5615 23.4279 49.762 23.1278L48.8635 22.5274L48.8635 22.5274V23.6081ZM19.0525 23.6081H48.8635V22.5274H19.0525V23.6081ZM18.0038 24.652C18.0038 24.0783 18.4717 23.6081 19.0525 23.6081V22.5274C17.8769 22.5274 16.9231 23.4793 16.9231 24.652H18.0038ZM18.0038 55.4578V24.652H16.9231V55.4578H18.0038ZM22.2465 59.6885C19.9006 59.6885 18.0038 57.7918 18.0038 55.4578H16.9231C16.9231 58.3907 19.3058 60.7692 22.2465 60.7692V59.6885ZM68.5921 59.6885H22.2465V60.7692H68.5921V59.6885Z" fill="#62E0D9"/>
<path fill-rule="evenodd" clip-rule="evenodd" d="M37.1388 36.5853V39.0478C37.1388 39.8638 37.7857 40.5253 38.5839 40.5253H40.9922M42.9189 40.5253V40.3563C42.9189 39.8338 42.7161 39.3324 42.3549 38.9631L38.6667 35.1926C38.305 34.8232 37.8151 34.6154 37.3041 34.6154H26.542C25.478 34.6154 24.6154 35.4974 24.6154 36.5853V57.27C24.6154 58.3579 25.478 59.2399 26.542 59.2399H40.9922C42.0562 59.2399 42.9189 58.3579 42.9189 57.27V50.3751" fill="#62E0D9"/>
<path d="M40.7313 43.7568L40.952 43.5409V43.5409L40.7313 43.7568ZM43.6213 46.7118L43.4006 46.9277V46.9277L43.6213 46.7118ZM43.6213 47.1436L43.4006 46.9277V46.9277L43.6213 47.1436ZM34.4695 56.5009L34.6903 56.7168H34.6903L34.4695 56.5009ZM31.138 53.1142L30.9173 52.8983L30.9173 52.8983L31.138 53.1142ZM40.2898 43.7568L40.0691 43.5409L40.2898 43.7568ZM31.6675 55.9762H31.3588C31.3588 56.1468 31.497 56.285 31.6675 56.285V55.9762ZM31.6675 53.4559L31.4468 53.24C31.3904 53.2977 31.3588 53.3752 31.3588 53.4559H31.6675ZM34.1189 55.9762V56.285C34.202 56.285 34.2815 56.2515 34.3396 56.1921L34.1189 55.9762ZM42.9687 46.9277L43.1894 47.1436C43.3068 47.0236 43.3068 46.8318 43.1894 46.7118L42.9687 46.9277ZM40.5105 44.4143L40.7313 44.1984C40.6732 44.139 40.5936 44.1055 40.5105 44.1055C40.4275 44.1055 40.3479 44.139 40.2898 44.1984L40.5105 44.4143ZM43.7966 42.7122L44.0174 42.4964V42.4964L43.7966 42.7122ZM41.3114 42.7122L41.0907 42.4964V42.4964L41.3114 42.7122ZM44.6429 43.5776L44.4222 43.7934V43.7934L44.6429 43.5776ZM44.6429 46.099L44.4222 45.8831L44.6429 46.099ZM43.6213 47.1436L43.8421 47.3594H43.8421L43.6213 47.1436ZM43.1798 47.1436L42.9591 47.3594L43.1798 47.1436ZM40.2898 44.1886L40.5105 43.9727L40.2898 44.1886ZM40.2898 43.7568L40.5105 43.9727L40.2898 43.7568ZM41.7529 43.144L41.5322 42.9281L41.7529 43.144ZM43.3552 43.144L43.5759 42.9281L43.3552 43.144ZM40.9424 43.9727L40.7217 43.7568C40.6043 43.8768 40.6043 44.0686 40.7217 44.1886L40.9424 43.9727ZM43.4006 46.4861L43.1798 46.702C43.2379 46.7614 43.3175 46.7948 43.4006 46.7948C43.4837 46.7948 43.5632 46.7614 43.6213 46.702L43.4006 46.4861ZM44.2015 45.6672L44.4222 45.8831L44.2015 45.6672ZM44.2015 44.0093L44.4222 43.7934L44.2015 44.0093ZM40.952 43.5409C40.8358 43.4221 40.6767 43.3552 40.5105 43.3552V43.9727V43.9727L40.952 43.5409ZM43.8421 46.4959L40.952 43.5409L40.5105 43.9727L43.4006 46.9277L43.8421 46.4959ZM43.8421 47.3594C44.0768 47.1194 44.0768 46.7359 43.8421 46.4959L43.4006 46.9277V46.9277L43.8421 47.3594ZM34.6903 56.7168L43.8421 47.3594L43.4006 46.9277L34.2488 56.285L34.6903 56.7168ZM34.2488 56.9025C34.415 56.9025 34.5741 56.8356 34.6903 56.7168L34.2488 56.285H34.2488V56.9025ZM31.3588 56.9025H34.2488V56.285H31.3588V56.9025ZM30.7412 56.285C30.7412 56.626 31.0177 56.9025 31.3588 56.9025V56.285H30.7412ZM30.7412 53.33V56.285H31.3588V53.33H30.7412ZM30.9173 52.8983C30.8044 53.0137 30.7412 53.1686 30.7412 53.33H31.3588L31.3588 53.33L30.9173 52.8983ZM40.0691 43.5409L30.9173 52.8983L31.3588 53.33L40.5105 43.9727L40.0691 43.5409ZM40.5105 43.3552C40.3444 43.3552 40.1852 43.4221 40.0691 43.5409L40.5105 43.9727V43.9727V43.3552ZM31.9763 55.9762V53.4559H31.3588V55.9762H31.9763ZM34.1189 55.6675H31.6675V56.285H34.1189V55.6675ZM42.7479 46.7118L33.8982 55.7603L34.3396 56.1921L43.1894 47.1436L42.7479 46.7118ZM40.2898 44.6302L42.7479 47.1436L43.1894 46.7118L40.7313 44.1984L40.2898 44.6302ZM31.8883 53.6718L40.7313 44.6302L40.2898 44.1984L31.4468 53.24L31.8883 53.6718ZM44.0174 42.4964C43.2106 41.6715 41.8974 41.6715 41.0907 42.4964L41.5322 42.9281C42.0967 42.3509 43.0114 42.3509 43.5759 42.9281L44.0174 42.4964ZM44.8637 43.3617L44.0174 42.4964L43.5759 42.9281L44.4222 43.7934L44.8637 43.3617ZM44.8637 46.3149C45.6629 45.4977 45.6629 44.1789 44.8637 43.3617L44.4222 43.7934C44.9867 44.3706 44.9867 45.3059 44.4222 45.8831L44.8637 46.3149ZM43.8421 47.3594L44.8637 46.3149L44.4222 45.8831L43.4006 46.9277L43.8421 47.3594ZM43.4006 47.5452C43.5667 47.5452 43.7259 47.4782 43.8421 47.3594L43.4006 46.9277H43.4006V47.5452ZM42.9591 47.3594C43.0753 47.4782 43.2344 47.5452 43.4006 47.5452V46.9277L42.9591 47.3594ZM40.0691 44.4045L42.9591 47.3594L43.4006 46.9277L40.5105 43.9727L40.0691 44.4045ZM40.0691 43.5409C39.8343 43.7809 39.8343 44.1645 40.0691 44.4045L40.5105 43.9727L40.0691 43.5409ZM41.0907 42.4964L40.0691 43.5409L40.5105 43.9727L41.5322 42.9281L41.0907 42.4964ZM41.9736 43.3599C42.2959 43.0304 42.8121 43.0304 43.1344 43.3599L43.5759 42.9281C43.0114 42.3509 42.0967 42.3509 41.5322 42.9281L41.9736 43.3599ZM41.1632 44.1886L41.9736 43.3599L41.5322 42.9281L40.7217 43.7568L41.1632 44.1886ZM43.6213 46.2702L41.1632 43.7568L40.7217 44.1886L43.1798 46.702L43.6213 46.2702ZM43.9807 45.4513L43.1798 46.2702L43.6213 46.702L44.4222 45.8831L43.9807 45.4513ZM43.9807 44.2252C44.3105 44.5624 44.3105 45.1141 43.9807 45.4513L44.4222 45.8831C44.9867 45.3059 44.9867 44.3706 44.4222 43.7934L43.9807 44.2252ZM43.1344 43.3599L43.9807 44.2252L44.4222 43.7934L43.5759 42.9281L43.1344 43.3599Z" fill="white"/>
<path d="M28.4688 43.8477C28.1277 43.8477 27.8512 44.1242 27.8512 44.4652H28.4688V43.8477ZM38.1022 43.8477H28.4688V44.4652H38.1022V43.8477ZM38.7197 44.4652C38.7197 44.1242 38.4433 43.8477 38.1022 43.8477V44.4652H38.7197ZM38.1022 45.0827C38.4433 45.0827 38.7197 44.8063 38.7197 44.4652H38.1022V45.0827ZM28.4688 45.0827H38.1022V44.4652H28.4688V45.0827ZM27.8512 44.4652C27.8512 44.8063 28.1277 45.0827 28.4688 45.0827V44.4652H27.8512ZM28.4688 46.8026C28.1277 46.8026 27.8512 47.0791 27.8512 47.4202H28.4688V46.8026ZM37.1389 46.8026H28.4688V47.4202H37.1389V46.8026ZM37.7564 47.4202C37.7564 47.0791 37.4799 46.8026 37.1389 46.8026V47.4202H37.7564ZM37.1389 48.0377C37.4799 48.0377 37.7564 47.7612 37.7564 47.4202H37.1389V48.0377ZM28.4688 48.0377H37.1389V47.4202H28.4688V48.0377ZM27.8512 47.4202C27.8512 47.7612 28.1277 48.0377 28.4688 48.0377V47.4202H27.8512ZM28.4688 49.7576C28.1277 49.7576 27.8512 50.0341 27.8512 50.3751H28.4688V49.7576ZM34.2488 49.7576H28.4688V50.3751H34.2488V49.7576ZM34.8663 50.3751C34.8663 50.0341 34.5899 49.7576 34.2488 49.7576V50.3751H34.8663ZM34.2488 50.9926C34.5899 50.9926 34.8663 50.7162 34.8663 50.3751H34.2488V50.9926ZM28.4688 50.9926H34.2488V50.3751H28.4688V50.9926ZM27.8512 50.3751C27.8512 50.7162 28.1277 50.9926 28.4688 50.9926V50.3751H27.8512Z" fill="white"/>
<path fill-rule="evenodd" clip-rule="evenodd" d="M30.2822 61.1016C30.2822 62.6188 29.0433 63.8493 27.5158 63.8493H8.15104C6.62353 63.8493 5.38464 62.6188 5.38464 61.1016V47.3631C5.38464 45.8459 6.62353 44.6154 8.15104 44.6154H27.5158C29.0433 44.6154 30.2822 45.8459 30.2822 47.3631V61.1016ZM13.6838 49.6528C13.6838 50.9172 12.6515 51.9426 11.3785 51.9426C10.1055 51.9426 9.07317 50.9172 9.07317 49.6528C9.07317 48.3884 10.1055 47.3631 11.3785 47.3631C12.6515 47.3631 13.6838 48.3884 13.6838 49.6528Z" fill="#62E0D9"/>
<path d="M25.9896 60.5043L20.5672 54.7699L18.3079 57.1592L15.1449 53.8142L8.81885 60.5043" stroke="white" stroke-width="0.5" stroke-linecap="round" stroke-linejoin="round"/>
</svg>

<svg width="80" height="80" fill="none" xmlns="http://www.w3.org/2000/svg"><path d="M71.813 20.348l.54.015-.54-.015zm-.979 40.798l-.387.377.387-.377zm-.152-.392l.54.015-.54-.015zm1.097-.575l-.54-.015a.54.54 0 00.637.546l-.097-.531zm1.097-39.202l.152-.519a.54.54 0 00-.692.504l.54.015zm-20.203-5.123l-.45-.3.45.3zm-4.098 6.133v.54a.54.54 0 00.449-.24l-.45-.3zM68.592 60.23v.54a.54.54 0 00.38-.924l-.38.384zM53.411 16.694v-.54a.54.54 0 00-.45.24l.45.3zm-4.098 6.134l-.45-.3.45.3zm23.04-3.546a1.08 1.08 0 00-1.08 1.05l1.08.03v-1.08zm3.343 3.207c0-1.834-1.563-3.207-3.343-3.207v1.08c1.25 0 2.262.955 2.262 2.128h1.081zm0 35.09V22.49h-1.08v35.09h1.08zm-4.474 4.27c2.406 0 4.474-1.848 4.474-4.27h-1.08c0 1.76-1.519 3.19-3.394 3.19v1.08zm-.775-.326c.203.209.483.327.775.327v-1.08l-.775.753zm-.306-.784a1.08 1.08 0 00.306.784l.775-.754-1.08-.03zm1.132-40.406L70.14 60.739l1.08.03 1.132-40.406-1.08-.03zm1.046 39.861l1.097-39.202-1.08-.03-1.097 39.202 1.08.03zm1.216-2.615c0 .975-.754 1.868-1.853 2.068l.194 1.063c1.56-.284 2.74-1.582 2.74-3.13h-1.081zm0-35.09v35.09h1.08V22.49h-1.08zm-.81-.993c.503.147.81.57.81.994h1.08c0-.95-.67-1.763-1.587-2.032l-.303 1.038zm-19.603-6.423c-.36 0-.698.18-.898.48l.898.6v-1.08zm12.776 0H53.122v1.08h12.776v-1.08zm3.21 3.205a3.208 3.208 0 00-3.21-3.205v1.08c1.176 0 2.13.953 2.13 2.125h1.08zm0 39.304V18.278h-1.08v39.304h1.08zm2.114 2.106a2.11 2.11 0 01-2.114-2.106h-1.08a3.19 3.19 0 003.194 3.187v-1.08zm1.08 1.081a1.08 1.08 0 00-1.08-1.08v1.08h1.08zm-1.08 1.08a1.08 1.08 0 001.08-1.08h-1.08v1.08zm-48.975 0h48.975v-1.08H22.247v1.08zm-6.405-6.391c0 3.532 2.87 6.392 6.405 6.392v-1.08a5.317 5.317 0 01-5.324-5.312h-1.08zm0-30.806v30.806h1.081V24.652h-1.08zm3.21-3.205a3.208 3.208 0 00-3.21 3.205h1.081c0-1.173.954-2.125 2.13-2.125v-1.08zm29.523 0H19.052v1.08h29.523v-1.08zm3.649-5.894l-4.099 6.134.899.6 4.098-6.133-.898-.6zm14.723 42.03c0 1.185.485 2.258 1.265 3.03l.76-.768a3.171 3.171 0 01-.944-2.263h-1.081zm0-39.305v39.304h1.08V18.278h-1.08zm-1.049-1.043c.581 0 1.049.47 1.049 1.043h1.08a2.128 2.128 0 00-2.129-2.124v1.08zm-12.487 0h12.487v-1.081H53.411v1.08zm-3.649 5.893l4.098-6.134-.898-.6-4.099 6.133.899.6zm-.898.48c.36 0 .698-.18.898-.48l-.898-.6v1.08zm-29.811 0h29.81v-1.08h-29.81v1.08zm-1.05 1.044c0-.574.469-1.044 1.05-1.044v-1.08c-1.176 0-2.13.951-2.13 2.124h1.08zm0 30.806V24.652h-1.08v30.806h1.08zm4.244 4.23a4.237 4.237 0 01-4.243-4.23h-1.08a5.317 5.317 0 005.323 5.311v-1.08zm46.345 0H22.246v1.081h46.346v-1.08z" fill="#62E0D9"/><path fill-rule="evenodd" clip-rule="evenodd" d="M37.139 36.585v2.463c0 .816.647 1.477 1.445 1.477h2.408m1.927 0v-.169c0-.522-.203-1.024-.564-1.393l-3.688-3.77a1.907 1.907 0 00-1.363-.578H26.542c-1.064 0-1.927.882-1.927 1.97V57.27c0 1.088.863 1.97 1.927 1.97h14.45c1.064 0 1.927-.882 1.927-1.97v-6.895" fill="#62E0D9"/><path d="M40.731 43.757l.221-.216-.22.216zm2.89 2.955l-.22.216.22-.216zm0 .432l-.22-.216.22.216zM34.47 56.5l.221.216-.22-.216zm-3.331-3.387l-.22-.216.22.216zm9.152-9.357l-.22-.216.22.216zm-8.622 12.22h-.31c0 .17.139.308.31.308v-.309zm0-2.521l-.221-.216a.309.309 0 00-.088.216h.308zm2.45 2.52v.309a.309.309 0 00.222-.093l-.221-.216zm8.85-9.048l.221.216a.309.309 0 000-.432l-.22.216zm-2.458-2.514l.221-.216a.309.309 0 00-.441 0l.22.216zm3.287-1.702l.22-.216-.22.216zm-2.486 0l-.22-.216.22.216zm3.332.866l-.22.215.22-.215zm0 2.521l-.22-.216.22.216zm-1.022 1.045l.221.215-.22-.215zm-.441 0l-.22.215.22-.215zm-2.89-2.955l.22-.216-.22.216zm0-.432l.22.216-.22-.216zm1.463-.613l-.22-.216.22.216zm1.602 0l.22-.216-.22.216zm-2.413.829l-.22-.216a.309.309 0 000 .432l.22-.216zm2.459 2.513l-.221.216a.309.309 0 00.441 0l-.22-.216zm.8-.819l.221.216-.22-.216zm0-1.658l.221-.216-.22.216zm-3.249-.468a.617.617 0 00-.441-.186v.618l.441-.432zm2.89 2.955l-2.89-2.955-.441.432 2.89 2.955.441-.432zm0 .863a.618.618 0 000-.863l-.441.432.441.431zm-9.152 9.358l9.152-9.358-.441-.431-9.152 9.357.441.432zm-.441.186a.617.617 0 00.441-.186l-.441-.432v.618zm-2.89 0h2.89v-.618h-2.89v.618zm-.618-.618c0 .341.277.618.618.618v-.618h-.618zm0-2.955v2.955h.618V53.33h-.618zm.176-.432a.617.617 0 00-.176.432h.618l-.442-.432zm9.152-9.357l-9.152 9.357.442.432 9.151-9.357-.44-.432zm.441-.186a.617.617 0 00-.44.186l.44.432v-.618zm-8.534 12.621v-2.52h-.617v2.52h.617zm2.143-.309h-2.451v.618h2.45v-.617zm8.629-8.955l-8.85 9.048.442.432 8.85-9.048-.442-.432zM40.29 44.63l2.458 2.514.441-.432-2.458-2.514-.441.432zm-8.402 9.042l8.843-9.042-.441-.432-8.843 9.042.441.432zm12.13-11.176a2.04 2.04 0 00-2.927 0l.441.432a1.422 1.422 0 012.044 0l.441-.432zm.846.866l-.847-.866-.441.432.846.865.442-.431zm0 2.953c.799-.817.799-2.136 0-2.953l-.442.431a1.501 1.501 0 010 2.09l.442.432zm-1.022 1.044l1.022-1.044-.442-.432-1.021 1.045.441.431zm-.441.186a.618.618 0 00.441-.186l-.441-.431v.617zm-.442-.186a.618.618 0 00.442.186v-.617l-.442.431zm-2.89-2.955l2.89 2.955.442-.431-2.89-2.955-.442.431zm0-.863a.617.617 0 000 .864l.441-.432-.44-.432zm1.022-1.045l-1.022 1.045.441.432 1.022-1.045-.441-.432zm.883.864a.805.805 0 011.16 0l.442-.432a1.422 1.422 0 00-2.044 0l.442.432zm-.81.829l.81-.83-.442-.43-.81.828.441.432zm2.457 2.081l-2.458-2.513-.441.432 2.458 2.513.441-.432zm.36-.819l-.801.82.441.431.801-.819-.441-.432zm0-1.226c.33.337.33.89 0 1.226l.441.432a1.501 1.501 0 000-2.09l-.441.432zm-.847-.865l.847.865.441-.432-.846-.865-.442.432z" fill="#fff"/><path d="M28.469 43.848a.618.618 0 00-.618.617h.618v-.617zm9.633 0H28.47v.617h9.633v-.617zm.618.617a.617.617 0 00-.618-.617v.617h.618zm-.618.618a.617.617 0 00.618-.618h-.618v.618zm-9.633 0h9.633v-.618H28.47v.618zm-.618-.618c0 .341.277.618.618.618v-.618h-.618zm.618 2.338a.618.618 0 00-.618.617h.618v-.617zm8.67 0h-8.67v.617h8.67v-.617zm.617.617a.618.618 0 00-.617-.617v.617h.617zm-.617.618a.618.618 0 00.617-.618h-.617v.618zm-8.67 0h8.67v-.618h-8.67v.618zm-.618-.618c0 .341.277.618.618.618v-.618h-.618zm.618 2.338a.618.618 0 00-.618.617h.618v-.617zm5.78 0h-5.78v.617h5.78v-.617zm.617.617a.617.617 0 00-.617-.617v.617h.617zm-.617.618a.617.617 0 00.617-.618h-.617v.618zm-5.78 0h5.78v-.618h-5.78v.618zm-.618-.618c0 .341.277.618.618.618v-.618h-.618z" fill="#fff"/><path fill-rule="evenodd" clip-rule="evenodd" d="M30.282 61.102a2.758 2.758 0 01-2.766 2.747H8.15a2.758 2.758 0 01-2.766-2.747V47.363a2.758 2.758 0 012.766-2.748h19.365a2.758 2.758 0 012.766 2.748v13.739zm-16.598-11.45a2.298 2.298 0 01-2.305 2.29 2.298 2.298 0 01-2.306-2.29 2.298 2.298 0 012.306-2.289 2.298 2.298 0 012.305 2.29z" fill="#62E0D9"/><path d="M25.99 60.504l-5.423-5.734-2.26 2.39-3.162-3.346-6.326 6.69" stroke="#fff" stroke-width=".5" stroke-linecap="round" stroke-linejoin="round"/></svg>
